Dominus_Funeral/22/devices/camera-video.svg

<svg xmlns="http://www.w3.org/2000/svg" width="24" height="24"><defs><linearGradient id="e"><stop offset="0" stop-color="#000001"/><stop offset="1" stop-color="#080000" stop-opacity="0"/></linearGradient><linearGradient id="a"><stop offset="0" stop-color="#000008"/><stop offset="1" stop-color="#0b0000" stop-opacity="0"/></linearGradient><linearGradient id="b"><stop offset="0" stop-color="#4d4d4d"/><stop offset="1" stop-color="gray"/></linearGradient><linearGradient id="c"><stop offset="0" stop-color="#4d4d4d"/><stop offset="1" stop-color="#666"/></linearGradient><linearGradient id="d"><stop offset="0" stop-color="#999"/><stop offset="1" stop-color="#fff"/></linearGradient></defs><path d="M5.363 2.291A4.363 4.363 0 0 0 1 6.654v13.764c0 .713.578 1.291 1.291 1.291h6.146c.714 0 1.292-.578 1.292-1.291V18.93h1.394v1.488H23V11.02H11.123v1.488H9.729V6.654a4.364 4.364 0 0 0-4.366-4.363zm0 2.168A2.195 2.195 0 0 1 7.56 6.654 2.195 2.195 0 0 1 5.363 8.85a2.195 2.195 0 0 1-2.195-2.196A2.195 2.195 0 0 1 5.363 4.46zm0 1.512a.684.684 0 0 0-.683.683.684.684 0 0 0 .683.686.684.684 0 0 0 .686-.686.684.684 0 0 0-.686-.683zm7.225 6.515h8.945v6.465h-8.945zm-9.252.022H7.37a.88.88 0 0 1 .879.88h.012V14.886a.885.885 0 0 1-.871.879H3.357a.872.872 0 0 1-.87-.88v-.741l-.02-.006v-.748c0-.486.393-.87.869-.881z" fill="#1a1a1a"/></svg>

<?xml version="1.0" encoding="UTF-8" standalone="no"?>
<svg
   xmlns:dc="http://purl.org/dc/elements/1.1/"
   xmlns:cc="http://creativecommons.org/ns#"
   xmlns:rdf="http://www.w3.org/1999/02/22-rdf-syntax-ns#"
   xmlns:svg="http://www.w3.org/2000/svg"
   xmlns="http://www.w3.org/2000/svg"
   xmlns:sodipodi="http://sodipodi.sourceforge.net/DTD/sodipodi-0.dtd"
   xmlns:inkscape="http://www.inkscape.org/namespaces/inkscape"
   width="24"
   height="24"
   version="1.1"
   id="svg31"
   sodipodi:docname="camera-video.svg"
   inkscape:version="0.92.4 (5da689c313, 2019-01-14)">
  <metadata
     id="metadata35">
    <rdf:RDF>
      <cc:Work
         rdf:about="">
        <dc:format>image/svg+xml</dc:format>
        <dc:type
           rdf:resource="http://purl.org/dc/dcmitype/StillImage" />
        <dc:title></dc:title>
      </cc:Work>
    </rdf:RDF>
  </metadata>
  <sodipodi:namedview
     pagecolor="#ffffff"
     bordercolor="#666666"
     borderopacity="1"
     objecttolerance="10"
     gridtolerance="10"
     guidetolerance="10"
     inkscape:pageopacity="0"
     inkscape:pageshadow="2"
     inkscape:window-width="1138"
     inkscape:window-height="480"
     id="namedview33"
     showgrid="false"
     inkscape:zoom="9.8333333"
     inkscape:cx="1.0677966"
     inkscape:cy="12"
     inkscape:window-x="0"
     inkscape:window-y="25"
     inkscape:window-maximized="0"
     inkscape:current-layer="svg31" />
  <defs
     id="defs27">
    <linearGradient
       id="e">
      <stop
         offset="0"
         stop-color="#000001"
         id="stop2" />
      <stop
         offset="1"
         stop-color="#080000"
         stop-opacity="0"
         id="stop4" />
    </linearGradient>
    <linearGradient
       id="a">
      <stop
         offset="0"
         stop-color="#000008"
         id="stop7" />
      <stop
         offset="1"
         stop-color="#0b0000"
         stop-opacity="0"
         id="stop9" />
    </linearGradient>
    <linearGradient
       id="b">
      <stop
         offset="0"
         stop-color="#4d4d4d"
         id="stop12" />
      <stop
         offset="1"
         stop-color="gray"
         id="stop14" />
    </linearGradient>
    <linearGradient
       id="c">
      <stop
         offset="0"
         stop-color="#4d4d4d"
         id="stop17" />
      <stop
         offset="1"
         stop-color="#666"
         id="stop19" />
    </linearGradient>
    <linearGradient
       id="d">
      <stop
         offset="0"
         stop-color="#999"
         id="stop22" />
      <stop
         offset="1"
         stop-color="#fff"
         id="stop24" />
    </linearGradient>
  </defs>
  <path
     d="M 5.363,2.291 A 4.363,4.363 0 0 0 1,6.654 v 13.764 c 0,0.713 0.578,1.291 1.291,1.291 h 6.146 c 0.714,0 1.292,-0.578 1.292,-1.291 V 18.93 h 1.394 v 1.488 H 23 V 11.02 H 11.123 v 1.488 H 9.729 V 6.654 A 4.364,4.364 0 0 0 5.363,2.291 Z m 0,2.168 A 2.195,2.195 0 0 1 7.56,6.654 2.195,2.195 0 0 1 5.363,8.85 2.195,2.195 0 0 1 3.168,6.654 2.195,2.195 0 0 1 5.363,4.46 Z m 0,1.512 A 0.684,0.684 0 0 0 4.68,6.654 0.684,0.684 0 0 0 5.363,7.34 0.684,0.684 0 0 0 6.049,6.654 0.684,0.684 0 0 0 5.363,5.971 Z m 7.225,6.515 h 8.945 v 6.465 H 12.588 Z M 3.336,12.508 H 7.37 a 0.88,0.88 0 0 1 0.879,0.88 h 0.012 v 1.498 A 0.885,0.885 0 0 1 7.39,15.765 H 3.357 a 0.872,0.872 0 0 1 -0.87,-0.88 V 14.144 L 2.467,14.138 V 13.39 c 0,-0.486 0.393,-0.87 0.869,-0.881 z"
     id="path29"
     inkscape:connector-curvature="0"
     style="fill:#1a1a1a" />
</svg>
